src/food-drink/food-prepared/1F357.svg

<svg id="emoji" viewBox="0 0 72 72" xmlns="http://www.w3.org/2000/svg">
  <g id="grid">
    <path fill="#b3b3b3" d="M68,4V68H4V4H68m4-4H0V72H72V0Z"/>
    <path fill="none" stroke="#00a5ff" stroke-miterlimit="10" stroke-width="0.1" d="M12.923,10.9583H59.0769A1.9231,1.9231,0,0,1,61,12.8814V59.0352a1.9231,1.9231,0,0,1-1.9231,1.9231H12.9231A1.9231,1.9231,0,0,1,11,59.0352V12.8813A1.923,1.923,0,0,1,12.923,10.9583Z"/>
    <rect x="16" y="4" rx="2.2537" width="40" height="64" fill="none" stroke="#00a5ff" stroke-miterlimit="10" stroke-width="0.1"/>
    <rect x="16" y="4" rx="2.2537" width="40" height="64" transform="translate(72) rotate(90)" fill="none" stroke="#00a5ff" stroke-miterlimit="10" stroke-width="0.1"/>
    <circle cx="36" cy="36" r="29" fill="none" stroke="#00a5ff" stroke-miterlimit="10" stroke-width="0.1"/>
  </g>
  <g id="color">
    <path fill="#FFFFFF" stroke="none" d="M33.4932,61c1.0449,0,1.9629-0.5352,2.5-1.3457C36.5303,60.4648,37.4482,61,38.4922,61	c1.6572,0,3.001-1.3437,3.001-2.999c0-1.6572-1.3438-3.001-3-3.001v-6h-5v6c-1.6573,0-3.001,1.3438-3,3	C30.4932,59.6582,31.8359,61,33.4932,61z"/>
    <path fill="#f4aa41" stroke="none" d="M40.877,12.7861c-0.7774-1.9394-2.667-3.3144-4.8838-3.3144s-4.1065,1.375-4.8838,3.3144 C24.6924,21.0107,24.3203,32.4092,29.9932,41c0,2.291,0,4.3369,0,5c0,1.6563,1.3437,3,3,3c1.6562,0,4.3437,0,6,0 c1.6562,0,3-1.3437,3-3c0-0.6631,0-2.709,0-5.001C47.666,32.4092,47.2949,21.0107,40.877,12.7861z"/>
  </g>
  <g id="hair"/>
  <g id="skin"/>
  <g id="skin-shadow"/>
  <g id="line">
    <path fill="none" stroke="#000000" stroke-linecap="round" stroke-linejoin="round" stroke-miterlimit="10" stroke-width="2" d="M33.4932,61c1.0449,0,1.9629-0.5352,2.5-1.3457C36.5303,60.4648,37.4482,61,38.4922,61c1.6572,0,3.001-1.3437,3.001-2.999 c0-1.6572-1.3438-3.001-3-3.001v-6h-5v6c-1.6573,0-3.001,1.3438-3,3C30.4932,59.6582,31.8359,61,33.4932,61z"/>
    <path fill="none" stroke="#000000" stroke-linecap="round" stroke-linejoin="round" stroke-miterlimit="10" stroke-width="2" d="M40.877,12.7861c-0.7774-1.9394-2.667-3.3144-4.8838-3.3144s-4.1065,1.375-4.8838,3.3144 C24.6924,21.0107,24.3203,32.4092,29.9932,41c0,2.291,0,4.3369,0,5c0,1.6563,1.3437,3,3,3c1.6562,0,4.3437,0,6,0 c1.6562,0,3-1.3437,3-3c0-0.6631,0-2.709,0-5.001C47.666,32.4092,47.2949,21.0107,40.877,12.7861z"/>
  </g>
</svg>

<svg viewBox="0 0 72 72" xmlns="http://www.w3.org/2000/svg"><path fill="#b3b3b3" d="M68 4v64H4V4h64m4-4H0v72h72V0z"/><path fill="none" stroke="#00a5ff" stroke-miterlimit="10" stroke-width=".1" d="M12.923 10.958h46.154A1.923 1.923 0 0161 12.881v46.154a1.923 1.923 0 01-1.923 1.923H12.923A1.923 1.923 0 0111 59.035V12.881a1.923 1.923 0 011.923-1.923z"/><rect x="16" y="4" rx="2.254" width="40" height="64" fill="none" stroke="#00a5ff" stroke-miterlimit="10" stroke-width=".1"/><rect x="16" y="4" rx="2.254" width="40" height="64" transform="rotate(90 36 36)" fill="none" stroke="#00a5ff" stroke-miterlimit="10" stroke-width=".1"/><circle cx="36" cy="36" r="29" fill="none" stroke="#00a5ff" stroke-miterlimit="10" stroke-width=".1"/><path d="M33.493 61a2.994 2.994 0 002.5-1.346 2.993 2.993 0 002.5 1.346 3 3 0 000-6v-6h-5v6a3 3 0 100 6zm7.384-48.214c-.777-1.94-2.667-3.314-4.884-3.314s-4.106 1.375-4.884 3.314C24.692 21.011 24.32 32.41 29.993 41v5a3 3 0 003 3h6a3 3 0 003-3v-5.001c5.673-8.59 5.302-19.988-1.116-28.213z" stroke-linecap="round" stroke-miterlimit="10" stroke-width="6" stroke="#fff" fill="none" stroke-linejoin="round"/><path fill="#FFF" d="M33.493 61a2.994 2.994 0 002.5-1.346 2.993 2.993 0 002.5 1.346 3 3 0 000-6v-6h-5v6a3 3 0 100 6z"/><path fill="#f4aa41" d="M40.877 12.786c-.777-1.94-2.667-3.314-4.884-3.314s-4.106 1.375-4.884 3.314C24.692 21.011 24.32 32.41 29.993 41v5a3 3 0 003 3h6a3 3 0 003-3v-5.001c5.673-8.59 5.302-19.988-1.116-28.213z"/><path d="M33.493 61a2.994 2.994 0 002.5-1.346 2.993 2.993 0 002.5 1.346 3 3 0 000-6v-6h-5v6a3 3 0 100 6zm7.384-48.214c-.777-1.94-2.667-3.314-4.884-3.314s-4.106 1.375-4.884 3.314C24.692 21.011 24.32 32.41 29.993 41v5a3 3 0 003 3h6a3 3 0 003-3v-5.001c5.673-8.59 5.302-19.988-1.116-28.213z" fill="none" stroke="#000" stroke-linecap="round" stroke-linejoin="round" stroke-miterlimit="10" stroke-width="2"/></svg>
